X:16
T:Miss Murray's Reel
R:slip jig
% 1st turn reminiscent of a 'modern' Irish slip jig titled The Butterfly
C:traditional
B:Bremner's Collections, 1757
N:melodic code 512 513b (512 513)
Z:Paul Stewart Cranford (P.S.C.), <http://www.cranfordpub.com>
L:1/8
M:3/2
Q:444
K:Aminor
e2 (A2 A2) c2 TB4|e2 (A2 A2) c2 BcdB|e2 (A2 A2) c2 TB4|e2 (A2 A2) c2 BcdB:|
|:c2 c2 e2 c2 g2 c2|e2 c2 g2 c2 efge|c2 c2 e2 c2 e4|e2 (A2 A2) c2 BcdB:|
